X: 32
T: Acemkürdî Sazsemâîsi
C: İsmail Hakkı Bey
O: Turkey
F: http://compmusic.upf.edu/node/140
N: acemkurdi--sazsemaisi--aksaksemai----muallim_ismail_hakki_bey
N: makam= acemkurdi
N: form= sazsemaisi
N: usul= aksaksemai = 10/8
M: 10/8
L: 1/16
K: C _B   
Q: 1/4=92
%%MIDI tuningsystem comma53
f4 egf3ea2 g2fg f2e2  | g2f2 efe2 dfed c_2/4Bc4z2  | 
w:  1. HANE  |   | 
ded2 c2de def2 g2a3/2b/ agf2  | _7/8a2g2 f2c'_1/4b aggf/g/ fef4(3cde  | 
w:   |   | 
f2e2 d2c3/2d/ cde/d/e/f/ edc4(3cde  | \
w:  TESLİM  | 
f2e2 d2c3AB/A/B/c/ BAA4(3cde  | 
w:   | 
d2c2 B2d2 cde/d/e/f/ edc4AB  | c2d2 edc3AB3/2A/ G2{B}A4(3cde  | 
w:   |   | 
f2e2 d2c3/2d/ cde/d/e/f/ edc4(3cde  | \
w:  TESLİM  | 
f2e2 d2c3AB/A/B/c/ BAA4(3cde  | 
w:   | 
d2c2 B2d2 cde/d/e/f/ edc4AB  | c2d2 edc3AB3/2A/ G2{B}A4z2  | 
w:   |   | 
c4 _2/4B2c3_3/4dc2 B2AB A2B2  | c2_3/4d2 cdc_2/4B AGA2 B2c4z2  | 
w:  2. HANE  |   | 
c_3/4dc2 d2ef efg2 _7/8a2gf edc2  | \
w:   | 
_7/8a2g2 f2c'_1/4b aggf/g/ fef4(3cde  | 
w:   | 
f2e2 d2c3/2d/ cde/d/e/f/ edc4(3cde  | \
w:  TESLİM  | 
f2e2 d2c3AB/A/B/c/ BAA4(3cde  | 
w:   | 
d2c2 B2d2 cde/d/e/f/ edc4AB  | c2d2 edc3AB3/2A/ G2{B}A4(3cde  | 
w:   |   | 
f2e2 d2c3/2d/ cde/d/e/f/ edc4(3cde  | \
w:  TESLİM  | 
f2e2 d2c3AB/A/B/c/ BAA4(3cde  | 
w:   | 
d2c2 B2d2 cde/d/e/f/ edc4AB  | c2d2 edc3AB3/2A/ G2{B}A4z2  | 
w:   |   | 
a4 g2a3ba2 b2c'd' c'2b2  | aba2 b2ba2ggf/g/ fga4z2  | 
w:  3. HANE  |   | 
g_7/8ag2 a2_2/4b2 gba2 fagf e_3/4dc2  | \
w:   | 
_7/8a2g2 f2c'_1/4b aggf/g/ fef4(3cde  | 
w:   | 
f2e2 d2c3/2d/ cde/d/e/f/ edc4(3cde  | \
w:  TESLİM  | 
f2e2 d2c3AB/A/B/c/ BAA4(3cde  | 
w:   | 
d2c2 B2d2 cde/d/e/f/ edc4AB  | c2d2 edc3AB3/2A/ G2{B}A4(3cde  | 
w:   |   | 
f2e2 d2c3/2d/ cde/d/e/f/ edc4(3cde  | \
w:  TESLİM  | 
f2e2 d2c3AB/A/B/c/ BAA4(3cde  | 
w:   | 
d2c2 B2d2 cde/d/e/f/ edc4AB  | c2d2 edc3AB3/2A/ G2{B}A4z2  | 
w:   |   | 
z12  | e2d2f2e4df  | gfe2d2c4z2  | eed2e2f2e2d2  | \
w:  |  4. HANE  |   |   | 
cdc2B2A4z2  | 
w:   | 
cBA2G2A4B2  | cdc2d2e4(3cde  | f2e2d2c4A2  | \
w:   |   |   | 
BAG2B2A4z2  | 
w:   | 
e2d2f2e4df  | gfe2d2c4z2  | eed2e2f2e2d2  | \
w:  4. HANE  |   |   | 
cdc2B2A4z2  | 
w:   | 
cBA2G2A4B2  | cdc2d2e4(3cde  | f2e2d2c4A2  | \
w:   |   |   | 
BAG2B2A4(3cde  | 
w:   | 
z20  | f2e2 d2c3/2d/ cde/d/e/f/ edc4(3cde  | \
w:  |  TESLİM  | 
f2e2 d2c3AB/A/B/c/ BAA4(3cde  | 
w:   | 
d2c2 B2d2 cde/d/e/f/ edc4AB  | c2d2 edc3AB3/2A/ G2{B}A4(3cde  | 
w:   |   | 
f2e2 d2c3/2d/ cde/d/e/f/ edc4(3cde  | \
w:  TESLİM  | 
f2e2 d2c3AB/A/B/c/ BAA4(3cde  | 
w:   | 
d2c2 B2d2 cde/d/e/f/ edc4AB  | c2d2 edc3AB3/2A/ G2{B}A4z2  | 
w:   |   | 
|


